X:34
T:Greenwood
K:Cmaj clef=treble
M:4/4
M:4/4
M:6/8
L:1/8
P:(AB)4
P:A
[||:"C"c'2c' c'2g | "Am"a2 a e3 | "F"f'>ga a>bc' | "G" d'2c' b2 a |
"C" c'2 c' c'2 g | "Am"a2ge2c' | "G"b2a g>fe | "Dm"f3 d3 :|
[||: "Am"a2a c'>ba | "G"g2e b2g | "F"a>ba c'>ba \
|1 "E"e'2e e3 :|2 "E"e'2e e2 a |] 
P:B
[||: "G"G2e' G>f'e' | "F"fdd d2d' | "E"eee e>f'g \
|1 "Am"aAA A2 a \
:|2 "Am"aAA A3 |]

